X:020
T:Find the Lady
M:4/4
L:1/8
K:G
B2 B2 d2 d2 | gfef g2 d2 | B2 B2 d2 d2 | gfeg f3 d |
c2 c2 A2 A2 | gfeg f2 d2 | A2 A2 gfeg | f2 e2 B4 |
B2 B2 d2 d2 | gfef g2 d2 | B2 B2 d2 d2 | gfed e4 |
e2 e2 ABce | d2 d2 GABd | c2 B2 ABcd | e2 f2 g4 ||
B2 d2 G2 d2 | Bded B2 G2 | B2 d2 gdBd | e2 d2 c3 B |
A2 c2 F2 A2 | cBcd c2 A2 | F2 A2 fffe | d2 A2 B4 |
B2 d2 G2 d2 | Bded B2 G2 | gdBd G2 B2 | c2 d2 e4 |
e2 e2 gfge | d2 B2 gdBd | c2 A2 c2 A2 | edef g4 ||
